svg/color/dawn.svg

<svg viewBox="0 0 250 250" fill="none" xmlns="http://www.w3.org/2000/svg">
<g clip-path="url(#clip0_1488_170201)">
<path d="M124.498 250C193.256 250 248.996 194.036 248.996 125C248.996 55.964 193.256 0 124.498 0C55.74 0 0 55.964 0 125C0 194.036 55.74 250 124.498 250Z" fill="url(#paint0_linear_1488_170201)"/>
<path d="M112.808 1.27314C112.839 1.0529 112.945 0.849855 113.107 0.69725C113.268 0.544645 113.477 0.451524 113.699 0.433137C154.905 -2.98986 196.947 13.9351 223.921 49.0931C266.017 103.952 255.483 182.413 200.395 224.328C172.797 245.328 139.259 253.174 107.347 248.856C107.165 248.832 106.994 248.757 106.852 248.641C106.71 248.525 106.604 248.372 106.544 248.198C102.561 236.642 100.138 223.411 101.695 209.51C106.512 166.506 136.715 154.418 149.548 112.008C162.304 69.8961 107.711 37.6981 112.808 1.27314Z" fill="url(#paint1_linear_1488_170201)"/>
<path d="M112.925 0.499851C154.378 -3.20115 196.779 13.7149 223.922 49.0919C266.017 103.952 255.483 182.413 200.396 224.328C172.624 245.461 138.836 253.272 106.744 248.773C125.155 244.854 203.404 205.393 184.218 123.904C174.068 80.7808 106.936 37.2429 112.925 0.499851Z" fill="url(#paint2_linear_1488_170201)"/>
<path d="M150.057 3.05428C178.567 8.89328 205.173 24.5693 224.244 49.3403C266.276 103.947 255.759 182.045 200.754 223.766C173.024 244.801 256.38 184.264 213.535 112.635C198.796 87.9953 182.457 78.4923 164.18 47.7313C150.083 24.0113 143.693 1.75428 150.057 3.05428Z" fill="url(#paint3_linear_1488_170201)"/>
</g>
<defs>
<linearGradient id="paint0_linear_1488_170201" x1="124.498" y1="-3.39746e-06" x2="10.498" y2="199.748" gradientUnits="userSpaceOnUse">
<stop stop-color="#20175A"/>
<stop offset="1" stop-color="#3D347C"/>
</linearGradient>
<linearGradient id="paint1_linear_1488_170201" x1="175.467" y1="0.000137185" x2="175.467" y2="250" gradientUnits="userSpaceOnUse">
<stop stop-color="#F54D59"/>
<stop offset="1" stop-color="#6C4562"/>
</linearGradient>
<linearGradient id="paint2_linear_1488_170201" x1="178.23" y1="-0.000149363" x2="178.23" y2="250" gradientUnits="userSpaceOnUse">
<stop stop-color="#FF755B"/>
<stop offset="1" stop-color="#EE4B5D"/>
</linearGradient>
<linearGradient id="paint3_linear_1488_170201" x1="198.795" y1="3.00028" x2="198.795" y2="228" gradientUnits="userSpaceOnUse">
<stop stop-color="#FE927E"/>
<stop offset="1" stop-color="#EE4B5D"/>
</linearGradient>
<clipPath id="clip0_1488_170201">
<rect width="250" height="250" fill="white"/>
</clipPath>
</defs>
</svg>

<svg xmlns="http://www.w3.org/2000/svg" fill="none" viewBox="0 0 250 250"><g clip-path="url(#dawn_svg-a)"><path fill="url(#dawn_svg-b)" d="M124.498 250c68.758 0 124.498-55.964 124.498-125S193.256 0 124.498 0 0 55.964 0 125s55.74 125 124.498 125"/><path fill="url(#dawn_svg-c)" d="M112.808 1.273a.98.98 0 0 1 .891-.84c41.206-3.423 83.248 13.502 110.222 48.66 42.096 54.859 31.562 133.32-23.526 175.235-27.598 21-61.136 28.846-93.048 24.528a.99.99 0 0 1-.803-.658c-3.983-11.556-6.406-24.787-4.849-38.688 4.817-43.004 35.02-55.092 47.853-97.502 12.756-42.112-41.837-74.31-36.74-110.735"/><path fill="url(#dawn_svg-d)" d="M112.925.5c41.453-3.701 83.854 13.215 110.997 48.592 42.095 54.86 31.561 133.321-23.526 175.236-27.772 21.133-61.56 28.944-93.652 24.445 18.411-3.919 96.66-43.38 77.474-124.869C174.068 80.781 106.936 37.243 112.925.5"/><path fill="url(#dawn_svg-e)" d="M150.057 3.054c28.51 5.84 55.116 21.515 74.187 46.286 42.032 54.607 31.515 132.705-23.49 174.426-27.73 21.035 55.626-39.502 12.781-111.131-14.739-24.64-31.078-34.143-49.355-64.904-14.097-23.72-20.487-45.977-14.123-44.677"/></g><defs><linearGradient id="dawn_svg-b" x1="124.498" x2="10.498" y1="0" y2="199.748" gradientUnits="userSpaceOnUse"><stop stop-color="#20175A"/><stop offset="1" stop-color="#3D347C"/></linearGradient><linearGradient id="dawn_svg-c" x1="175.467" x2="175.467" y1="0" y2="250" gradientUnits="userSpaceOnUse"><stop stop-color="#F54D59"/><stop offset="1" stop-color="#6C4562"/></linearGradient><linearGradient id="dawn_svg-d" x1="178.23" x2="178.23" y1="0" y2="250" gradientUnits="userSpaceOnUse"><stop stop-color="#FF755B"/><stop offset="1" stop-color="#EE4B5D"/></linearGradient><linearGradient id="dawn_svg-e" x1="198.795" x2="198.795" y1="3" y2="228" gradientUnits="userSpaceOnUse"><stop stop-color="#FE927E"/><stop offset="1" stop-color="#EE4B5D"/></linearGradient><clipPath id="dawn_svg-a"><path fill="#fff" d="M0 0h250v250H0z"/></clipPath></defs></svg>
